X:1
T:FLIGHT OF THE AIR SHIP
T:FLIGHT OF THE AIR SHIP
T:INTERMEZZO
T:HENRY ZEILER
T:1918
T:1918
T:1918
C:HENRY ZEILER
Z:1918
%%score { 1 | 2 }
L:1/8
Q:1/4=116
M:2/4
K:F
V:1 treble nm="Piano" snm="Pno."
V:2 bass 
V:1
"^Allegretto" !4!d'/!3!c'/!2!a/!1!f/ !4!d/!3!c/!2!A/!1!F/ | z4 |!f! z2 !>![^d^fc']2 | %3
 !>![egc']2 !>![cebc']2 ||!ff! !5!d'/!4!c'/!3!a/!2!f/ !1!d/!4!c/!3!A/!2!F/ | %5
!<(! !1!E/!2!G/!3!B/!1!c/ !5!c' z!<)! |!<(! !1!E/!2!G/B/!1!c/ c' z!<)! | %7
!<(! !1!F/!2!A/!3!c/!1!f/ !5!f' z!<)! | !5!d'/!4!c'/!3!a/!2!f/ !1!d/!4!c/!3!A/!2!F/ | %9
 !1!E/!2!G/!3!c/!4!e/ !5!g z |!<(! !2!g/!3!a/!4!=b/a/!<)!!>(! g/!1!f/!3!e/!2!d/!>)! | %11
 !1!c z !>![cec'] z | !5!d'/!4!c'/!3!a/!2!f/ !2!F/!1!d/!4!c/!3!A/ | %13
!<(! !1!E/!
2
!G/!3!c/!1!e/ !5!c' z!<)! |!<(! !1!E/!
2
!G/!3!c/!1!e/ !5!c' z!<)! | %15
!<(! F/A/c/f/ f' z!<)! |!>(! !4!d'/!3!c'/!2!a/!1!f/!>)! d'/c'/a/f/ | %17
!>(! !4!c'/!3!b/!2!g/!1!d/!>)! c'/b/g/d/ | !2!e/!5!d'/c'/b/ !2!g/!1!e/!5!a/!4!g/ |1 %19
!<(! !3!f[cc']/[cc']/ [cc'][cc']!<)! :|2 f z2 z |:!ff! a/f/d/A/ g/e/^c/A/ | [Adf][A^cg] [Adfa] z | %23
 d'/b/g/d/ c'/a/^f/d/ | [dbd'][c^fc'] [cgbd'] z |!f! !1!d/!4!g/!3!^f/g/ f/g/f/g/ | %26
 !1!c/!4!f/!3!e/f/ f/g/f/f/ | !1!e/!5!d'/!4!c'/ z/ e/d'/c'/ z/ | !1!f/!5!d'/!4!c'/ z/ f/d'/c'/ z/ | %29
!f! !1!d/!4!g/!3!^f/g/ f/g/f/g/ | !1!c/!4!f/e/f/ e/f/e/f/ | !1!e/!5!d'/!4!c'/ z/ e/d'/c'/ z/ |1 %32
 f2 z2 :|2 f z !>![fac'f']2 |:[K:Bb]!f! [F,F][B,D]/[B,D]/ [B,D][^F,^F] | %35
 [G,G]!<(![B,D]/[B,D]/ [B,D][^G,^G] | [A,A]!<)![EF]/[EF]/ [EF][Ee] |!>(! [FAd]2 [EAc]2!>)! | %38
 [F,F][B,D]/[B,D]/ [B,D][^F,^F] | [G,G][B,D]/[B,D]/ [B,D][^G,^G] | [A,A][EF]/[EF]/ [EF][Ee] | %41
 [FAd]2 [EAc]2 |!f! [Bbd']3 [ff'] | [e=be']3 [Bbd'] | [B_gd']3 [cc'] | [G=eg]3 [Geg] | %46
 [G=eg]2 [A_ea] z | [A=eg]2 [=Be=b] z | [B=eb]2 [=Be=b]2 |!>(! [cec'][Aa] [Ff][Ee]!>)! | %50
!>(! [Cc][A,A]!>)! [G,G][_G,_G] | !>![F,F][B,D]/[B,D]/ [B,D]!>![^F,^F] | %52
 !>![G,G][B,D]/[B,D]/ [B,D]!>![^G,^G] |!<(! !>![A,A][EF]/[EF]/ [EF][Ee] | [FAd]2 [EAc]2!<)! | %55
!>(! [F,F][B,D]/[B,D]/ [B,D][^F,^F]!>)! | [G,G][B,D]/[B,D]/ [B,D][^G,^G] | %57
 [A,A][EF]/[EF]/ [EF][Ee] | [FAd]2 [EAc]2 | [dbd']3 [ff'] | [e=be']3 [dbd'] | [dbd']3 [cc'] | %62
 [G=eg]3 [Geg] | [Geg][Ff] [ee'][cc'] | [Aea][Ff] [Ee][Cc] | ([B,B]4 |1 %66
 [B,B])[A,A] [G,G][_G,_G] :|2 [B,B] z !>![Bdb] z ||[K:F] d'/c'/a/f/ d/c/A/F/ | z4 | %70
!f! z2 !>![^d^fc']2 | !>![egc']2 !>![cebc']2 |[K:F]!ff! d'/c'/a/f/ d/c/A/F/ | E/G/B/c/ c' z | %74
 E/G/B/c/ c' z | F/A/c/f/ f' z | d'/c'/a/f/ d/c/A/F/ | E/G/c/e/ g z | g/a/=b/a/ g/f/e/d/ | %79
 c z !>![cec'] z | d'/c'/a/f/ d/c/A/F/ | E/G/B/c/ c' z | E/G/B/c/ c' z | F/A/c/f/ f' z | %84
!>(! c'/c'/a/f/!>)! d'/c'/a/f/ |!>(! c'/b/g/d/!>)! c'/b/g/d/ | e/d'/c'/b/ g/e/a/g/ | %87
 f z !>![fac'f']/ z/ z |] %88
V:2
 z4 | !1!D/!2!C/!3!A,/!1!F,/ !2!D,/!3!C,/!1!A,,/!2!F,,/ | !>![C,,C,]2 !>!A2 | !>!B2 !>![C,,C,]2 || %4
 [F,,F,][A,CF] [A,,A,][A,C] | [G,,G,][G,B,C] [C,,C,][G,B,C] | [E,,E,][G,B,C] [C,,C,][G,B,C] | %7
 [F,,F,][A,CF] [A,,A,][A,CF] | [F,,F,][A,CF] [A,,A,][A,C] | [G,,G,][G,CE] [G,,G,][G,CE] | %10
 [G,,G,][G,=B,F] [G,,G,][G,B,F] | [C,,C,] z !>![C,,C,] z | [F,,F,][A,CF] [A,,A,][A,CF] | %13
 [G,,G,][G,B,C] [C,,C,][G,B,C] | [E,,E,][G,B,C] [C,,C,][G,B,C] | [F,,F,][A,CF] [A,,A,][A,CF] | %16
 [F,,F,][A,CF] [A,,A,][A,CF] | [G,,G,][B,DF] [B,,B,][G,B,D] | C,[G,B,C] C,[G,B,C] |1 %19
 [F,,F,] z z2 :|2 [F,,F,] z !>![F,,F,]!>![E,,E,] |: !>![D,,D,]2 !>![E,,E,]2 | %22
 !>![F,,F,]!>![E,,E,] !>![D,,D,] z | !>![G,,G,]2 !>![A,,A,]2 | !>![B,,B,]!>![A,,A,] !>![G,,G,] z | %25
 B,,[F,B,D] [F,B,D][F,B,D] | A,,[A,CF] [A,CF][A,CF] | C,[G,B,C] E,[G,B,C] | F,[A,CF] C,[A,CF] | %29
 B,,[F,B,D] [F,B,D][F,B,D] | A,,[A,CF] [A,CF][A,CF] | C,[G,B,C] E,[G,B,C] |1 %32
 [F,A,C] z [F,,F,][E,,E,] :|2 [F,A,C] z !>![F,,F,] z |:[K:Bb] [B,,,B,,]2 [F,,,F,,]2 | %35
 [B,,,B,,]2 [F,,,F,,]2 | [C,,C,]2 [F,,,F,,]2 | z [F,,F,] [G,,G,][A,,A,] | [B,,,B,,]2 [F,,,F,,]2 | %39
 [B,,,B,,]2 [F,,,F,,]2 | [C,,C,]2 [F,,,F,,]2 | z [F,,F,] [G,,G,][A,,A,] | %42
 [B,,,B,,][F,B,D] [F,B,D] z | [G,,G,][G,=B,F] [G,B,F] z | C,[G,B,=E] [G,B,E] z | %45
 C,[G,B,=E] [G,B,E] z | C,[G,B,=E] =E,[G,B,E] | C,[G,=B,=E] C,[G,B,E] | %48
 [F,,F,][G,=B,E] [C,,C,][F,A,E] | [F,A,E] z z2 | z z z2 | [B,,,B,,]2 [F,,,F,,]2 | %52
 [B,,,B,,]2 [F,,,F,,]2 | [B,,,B,,]2 [F,,,F,,]2 | z [F,,F,] [G,,G,][A,,A,] | [B,,,B,,]2 [F,,,F,,]2 | %56
 [B,,,B,,]2 [F,,,F,,]2 | [C,,C,]2 [F,,,F,,]2 | z [F,,F,] [G,,G,][A,,A,] | %59
 [B,,,B,,][F,B,D] [F,B,D] z | [G,,G,][G,=B,F] [G,B,F] z | C,[G,B,=E] [G,B,E] z | %62
 C,[G,B,=E] [G,B,E] z | [F,,F,][F,A,E] [C,,C,][F,A,E] | [F,A,E] z z2 | %65
 G,,>[G,,G,] [F,,F,][D,,D,] |1 [B,,,B,,] z z2 :|2 [B,,,B,,] z [B,,,B,,] z ||[K:F] z4 | %69
 D/C/A,/F,/ D,/C,/A,,/F,,/ | [C,,C,]2 !>!A2 | !>!G2 !>![C,,C,]2 |[K:F] [F,,F,][A,CF] [A,,A,][A,C] | %73
 [A,,A,][G,B,C] [C,,C,][G,B,C] | [E,,E,][G,B,C] [C,,C,][G,B,C] | [F,,F,][A,CF] [A,,A,][A,CF] | %76
 [F,,F,][A,CF] [A,,A,][A,C] | [G,,G,][G,CE] [G,,G,][G,CE] | [G,,G,][G,=B,F] [G,,G,][G,B,F] | %79
 [C,,C,] z !>![C,,C,] z | [F,,F,][A,CF] [A,,A,][A,C] | [G,,G,][G,B,C] [C,,C,][G,B,C] | %82
 [G,,G,][G,B,C] [C,,C,][G,B,C] | [F,,F,][A,CF] [A,,A,][A,CF] | [F,,F,][A,CF] [A,,A,][A,CF] | %85
 [G,,G,][G,B,D] [B,,B,][G,B,D] | C,[G,B,C] C,[G,B,C] | F, z !>![F,,F,] z |] %88

